X:85
T:Nanny's Delight. THO2.085
O:London
M:2/4
L:1/8
B:Thompson's Compleat Coll. of 200 Favourite Country Dances, vol.2,1765
Z:Transcribed and edited by Fynn Titford-Mock, 2007
Z:abc's:AK/Fiddler's Companion/VMP 2009
K:G
d|gdBG|cecA|BdBG|A3 d|gdBG|cecA|BdDF|1 G3:|2 G4||
|:GDBD|ADcD|BdcB|cA TA2|GDBD|ADcD|BdDF|G4:|

